img/testim-button-next.svg

<svg width="34" height="34" viewBox="0 0 34 34" fill="none" xmlns="http://www.w3.org/2000/svg">
<path fill-rule="evenodd" clip-rule="evenodd" d="M22.6203 7.53253C23.3363 6.82249 24.4971 6.82249 25.213 7.53253L33.463 15.7144C34.179 16.4244 34.179 17.5756 33.463 18.2856L25.213 26.4675C24.4971 27.1775 23.3363 27.1775 22.6203 26.4675C21.9043 25.7574 21.9043 24.6062 22.6203 23.8962L27.7406 18.8182H2.83333C1.82081 18.8182 1 18.0042 1 17C1 15.9958 1.82081 15.1818 2.83333 15.1818H27.7406L22.6203 10.1038C21.9043 9.39379 21.9043 8.24258 22.6203 7.53253Z" fill="#7D82B7"/>
</svg>

<svg width="34" height="34" fill="none" xmlns="http://www.w3.org/2000/svg"><path fill-rule="evenodd" clip-rule="evenodd" d="M22.62 7.533a1.844 1.844 0 012.593 0l8.25 8.181c.716.71.716 1.862 0 2.572l-8.25 8.181c-.716.71-1.877.71-2.593 0a1.808 1.808 0 010-2.57l5.12-5.079H2.834A1.826 1.826 0 011 17c0-1.004.82-1.818 1.833-1.818h24.908l-5.12-5.078a1.807 1.807 0 010-2.571z" fill="#7D82B7"/></svg>
